icon/pk/baby.svg

<svg viewBox="0 0 48 48" fill="none" xmlns="http://www.w3.org/2000/svg" height="1em" width="1em">
  <path fill-rule="evenodd" clip-rule="evenodd" d="M24 43.6C32.432 43.6 39.5606 36.9192 41.8935 29.2497C42.4179 27.5255 46 27.5255 46 23.8C46 20.0745 42.3839 19.8601 41.7987 18.048C39.3724 10.5346 32.3209 4 24 4C15.6745 4 8.61973 10.5407 6.19725 18.0606C5.61467 19.8691 2 20.0091 2 23.8C2 27.5909 5.59225 27.5909 6.1349 29.3421C8.4967 36.9639 15.6018 43.6 24 43.6Z" fill="#2F88FF" stroke="black" stroke-width="4"/>
  <path d="M41.7987 18.048C39.3724 10.5346 32.3209 4 24 4" stroke="black" stroke-width="4" stroke-linecap="round"/>
  <path d="M19.1002 21.5998C19.1002 22.4261 18.876 23.1516 18.5398 23.6559C18.2013 24.1637 17.7885 24.3998 17.4002 24.3998C17.0119 24.3998 16.5991 24.1637 16.2606 23.6559C15.9244 23.1516 15.7002 22.4261 15.7002 21.5998C15.7002 20.7735 15.9244 20.048 16.2606 19.5437C16.5991 19.0359 17.0119 18.7998 17.4002 18.7998C17.7885 18.7998 18.2013 19.0359 18.5398 19.5437C18.876 20.048 19.1002 20.7735 19.1002 21.5998Z" fill="white" stroke="white"/>
  <path d="M32.2999 21.5998C32.2999 22.4261 32.0757 23.1516 31.7395 23.6559C31.401 24.1637 30.9882 24.3998 30.5999 24.3998C30.2116 24.3998 29.7988 24.1637 29.4603 23.6559C29.1241 23.1516 28.8999 22.4261 28.8999 21.5998C28.8999 20.7735 29.1241 20.048 29.4603 19.5437C29.7988 19.0359 30.2116 18.7998 30.5999 18.7998C30.9882 18.7998 31.401 19.0359 31.7395 19.5437C32.0757 20.048 32.2999 20.7735 32.2999 21.5998Z" fill="white" stroke="white"/>
  <path fill-rule="evenodd" clip-rule="evenodd" d="M18.498 31.7505C20.4289 33.0501 22.266 33.6999 24.0094 33.6999C25.7509 33.6999 27.4776 33.0515 29.1894 31.7547" fill="white"/>
  <path d="M18.498 31.7505C20.4289 33.0501 22.266 33.6999 24.0094 33.6999C25.7509 33.6999 27.4776 33.0515 29.1894 31.7547" stroke="white" stroke-width="4" stroke-linecap="round"/>
  <path d="M31.7283 6.2002C31.9964 8.13368 31.4067 9.54651 29.9593 10.4387C28.5119 11.3309 26.1602 11.749 22.9043 11.693" stroke="black" stroke-width="4" stroke-linecap="round"/>
</svg>

<svg width="48" height="48" fill="none" xmlns="http://www.w3.org/2000/svg"><path fill-rule="evenodd" clip-rule="evenodd" d="M24 43.6c8.432 0 15.56-6.68 17.894-14.35C42.418 27.526 46 27.526 46 23.8s-3.616-3.94-4.201-5.752C39.372 10.535 32.32 4 24 4 15.675 4 8.62 10.54 6.197 18.06 5.615 19.87 2 20.01 2 23.8s3.592 3.79 4.135 5.542C8.497 36.964 15.602 43.6 24 43.6Z" fill="#2F88FF" stroke="#000" stroke-width="4"/><path d="M41.799 18.048C39.372 10.535 32.32 4 24 4" stroke="#000" stroke-width="4" stroke-linecap="round"/><path d="M19.1 21.6c0 .826-.224 1.552-.56 2.056-.339.508-.752.744-1.14.744-.388 0-.8-.236-1.14-.744-.336-.504-.56-1.23-.56-2.056 0-.827.224-1.552.56-2.056.34-.508.752-.744 1.14-.744.389 0 .801.236 1.14.744.336.504.56 1.23.56 2.056ZM32.3 21.6c0 .826-.224 1.552-.56 2.056-.339.508-.752.744-1.14.744-.388 0-.801-.236-1.14-.744-.336-.504-.56-1.23-.56-2.056 0-.827.224-1.552.56-2.056.339-.508.752-.744 1.14-.744.388 0 .801.236 1.14.744.336.504.56 1.23.56 2.056Z" fill="#fff" stroke="#fff"/><path fill-rule="evenodd" clip-rule="evenodd" d="M18.498 31.75c1.93 1.3 3.768 1.95 5.511 1.95 1.742 0 3.469-.649 5.18-1.945" fill="#fff"/><path d="M18.498 31.75c1.93 1.3 3.768 1.95 5.511 1.95 1.742 0 3.469-.649 5.18-1.945" stroke="#fff" stroke-width="4" stroke-linecap="round"/><path d="M31.728 6.2c.268 1.934-.321 3.347-1.769 4.239-1.447.892-3.799 1.31-7.055 1.254" stroke="#000" stroke-width="4" stroke-linecap="round"/></svg>
